!!!OTL@@FUR: Montagnutis ribassaisi
!!!OTL@IT: Montagne, abbassatevi
!!!OTL@EN: Mountains, shrink
**kern
*clefG2
*k[]
*C:
*M3/4
*MM55
*>[A,B,C,B,D]
*>A
8.g
16a
=1
*>B
8g
8e
8g
8cc
=2
8ee
8cc
8g
8a
=3
8b
8g
[4d
=4
4d]
8d
8e
=5
8f
8d
8f
8g
=6
8.b
16a
12g
12a
12f
=7
[2e
=8
4e]
8.e
16g
=9
4f
[4A
=10
8A]
8f
12f
12e
12d
=11
4e
[4G
=12
4G]
8d
8e
=13
8f
8d
8f
8g
=14
8.b
16a
12g
12a
12f
=15||
*>C
[2e
=16
4e]
8.g
16a
=17:|!
*>D
[2e
=18
2e]
==
*-
!!!ARE: Friuli
!!!ENC: Kelly Leistikow
!!!END: 2002/03/07
!!!ref: @{OTL@@FUR}/@{OTL@EN}
